X:4
T:Hark! The Herald Angels Sing 
C: F. Mendelssohn, 
Z:ABC by Thornton Rose, December 2001, edited by Peter & Mackin
M:2/4
L:1/8
K:G
r:40
"G"D>G G F | GB "D"BA | dd d>c | "G"BA B2 |
D>G GF | GA "D"BA | "A"dA A>F | "D"FE D2 |
"D"dd dG | "C"cB BA | "D"dd dG | "C"cB BA |
"C"e>e ed | "E"cB "Am"c2 | "D"AB/2c/2 d>G | "G"GA B2 |
"C"e>e ed | "E"cB "Am"c2 | "D"AB/2c/2 "G"d>G | G"D"A "G"G2 :|

